!!!OTL: Mendon
!!!COL: Hymnal 1982
!!!COL:
**kern	**text	**text	**text	**text
*clefG2	*	*	*	*
*k[f#c#g#]	*	*	*	*
*M3/4	*	*	*	*
*A:	*	*	*	*
=1	=1	=1	=1	=1
4a	1.Lord	2.Sun	3.Lord	4.Grant
4g#	of	of	of	us
4a	all	our	all	thy
=2	=2	=2	=2	=2
2g#	be-	life,	life	truth
4a	ing,	thy	be-	to
=3	=3	=3	=3	=3
2g#	throned	quick-	low,	make
4a	a-	ening	a-	us
=4	=4	=4	=4	=4
2b.;	far,	ray	bove,	free,
=5	=5	=5	=5	=5
4a	thy	sheds	whose	and
4cc#	glo-	on	light	kin-
4a	ry	our	is	dling
=6	=6	=6	=6	=6
2f#	flames	path	truth,	hearts
4b	from	the	whose	that
=7	=7	=7	=7	=7
4a.	sun	glow	warmth	burn
8b	.	.	.	.
4g#	and	is	is	for
=8	=8	=8	=8	=8
2a.;	star;	love,	love,	thee,
=9	=9	=9	=9	=9
4b	cen-	day;	be-	till
4b	ter	star	fore	all
4b	and	of	thy	thy
=10	=10	=10	=10	=10
2cc#	soul	our	ev-	liv-
4a	of	hope,	er-	ing
=11	=11	=11	=11	=11
2dd	ev-	thy	blaz-	al-
4cc#	ery	soft-	ing	tars
=12	=12	=12	=12	=12
2b;	sphere,	ened	throne	claim
=13	=13	=13	=13	=13
4a	yet	light	we	one
4cc#	to	cheers	ask	ho-
4a	each	the	no	ly
=14	=14	=14	=14	=14
2f#	lov-	long	lus-	light,
4b	ing	watch-	ter	one
=15	=15	=15	=15	=15
4a.	heart	es	of	heav-
8b	.	.	.	en-
4g#	how	of	our	ly
=16	=16	=16	=16	=16
2a.;	near!	night.	own.	flame.
==	==	==	==	==
*-	*-	*-	*-	*
